1-js/05-data-types/12-json/json-meetup.svg

<svg xmlns="http://www.w3.org/2000/svg" width="188" height="192" viewBox="0 0 188 192"><defs><style>@import url(https://fonts.googleapis.com/css?family=Open+Sans:bold,italic,bolditalic%7CPT+Mono);@font-face{font-family:&apos;PT Mono&apos;;font-weight:700;font-style:normal;src:local(&apos;PT MonoBold&apos;),url(/font/PTMonoBold.woff2) format(&apos;woff2&apos;),url(/font/PTMonoBold.woff) format(&apos;woff&apos;),url(/font/PTMonoBold.ttf) format(&apos;truetype&apos;)}</style></defs><g id="combined" fill="none" fill-rule="evenodd" stroke="none" stroke-width="1"><g id="json-meetup.svg"><path id="Rectangle-2" fill="#FFF9EB" stroke="#BCA68E" stroke-width="2" d="M59 1h89v26H59z"/><text id="number:-23" fill="#8A704D" font-family="PTMono-Regular, PT Mono" font-size="12" font-weight="normal"><tspan x="72" y="17">number: 23</tspan></text><path id="Rectangle-3" fill="#FFF9EB" stroke="#BCA68E" stroke-width="2" d="M25 80h152v26H25z"/><text id="title:-&quot;Conference&quot;" fill="#8A704D" font-family="PTMono-Regular, PT Mono" font-size="12" font-weight="normal"><tspan x="38" y="96">title: &quot;Conference&quot;</tspan></text><path id="Rectangle-3-Copy" fill="#FFF9EB" stroke="#BCA68E" stroke-width="2" d="M57 157h89v26H57z"/><text id="..." fill="#8A704D" font-family="PTMono-Regular, PT Mono" font-size="12" font-weight="normal"><tspan x="91" y="173">...</tspan></text><text id="place" fill="#8A704D" font-family="PTMono-Regular, PT Mono" font-size="14" font-weight="normal"><tspan x="127" y="56">place</tspan></text><path id="Line" fill="#EE6B47" fill-rule="nonzero" d="M95.5 34.5v18h6l-7 14-7-14h6v-18h2z"/><path id="Line-Copy" fill="#EE6B47" fill-rule="nonzero" d="M107.5 35.5l7 14h-6v18h-2v-18h-6l7-14z"/><text id="occupiedBy" fill="#8A704D" font-family="PTMono-Regular, PT Mono" font-size="14" font-weight="normal"><tspan x="5" y="56">occupiedBy</tspan></text><path id="Line-Copy-2" fill="#EE6B47" fill-rule="nonzero" d="M102.5 113.5v18h6l-7 14-7-14h6v-18h2z"/><text id="participants" fill="#8A704D" font-family="PTMono-Regular, PT Mono" font-size="14" font-weight="normal"><tspan x="0" y="135">participants</tspan></text><ellipse id="Oval-32" cx="101" cy="52.5" stroke="#F5A623" rx="37" ry="33.5"/></g></g></svg>

<?xml version="1.0" encoding="UTF-8"?>
<svg width="188px" height="192px" viewBox="0 0 188 192" version="1.1" xmlns="http://www.w3.org/2000/svg" xmlns:xlink="http://www.w3.org/1999/xlink">
    <!-- Generator: sketchtool 61.2 (101010) - https://sketch.com -->
    <title>json-meetup.svg</title>
    <desc>Created with sketchtool.</desc>
    <g id="combined" stroke="none" stroke-width="1" fill="none" fill-rule="evenodd">
        <g id="json-meetup.svg">
            <rect id="Rectangle-2" stroke="#BCA68E" stroke-width="2" fill="#FFF9EB" x="59" y="1" width="89" height="26"></rect>
            <text id="number:-23" font-family="PTMono-Regular, PT Mono" font-size="12" font-weight="normal" fill="#8A704D">
                <tspan x="72" y="17">number: 23</tspan>
            </text>
            <rect id="Rectangle-3" stroke="#BCA68E" stroke-width="2" fill="#FFF9EB" x="25" y="80" width="152" height="26"></rect>
            <text id="title:-&quot;Conference&quot;" font-family="PTMono-Regular, PT Mono" font-size="12" font-weight="normal" fill="#8A704D">
                <tspan x="38" y="96">title: "Conference"</tspan>
            </text>
            <rect id="Rectangle-3-Copy" stroke="#BCA68E" stroke-width="2" fill="#FFF9EB" x="57" y="157" width="89" height="26"></rect>
            <text id="..." font-family="PTMono-Regular, PT Mono" font-size="12" font-weight="normal" fill="#8A704D">
                <tspan x="91" y="173">...</tspan>
            </text>
            <text id="place" font-family="PTMono-Regular, PT Mono" font-size="14" font-weight="normal" fill="#8A704D">
                <tspan x="127" y="56">place</tspan>
            </text>
            <path id="Line" d="M95.5,34.5 L95.5,52.5 L101.5,52.5 L94.5,66.5 L87.5,52.5 L93.5,52.5 L93.5,34.5 L95.5,34.5 Z" fill="#EE6B47" fill-rule="nonzero"></path>
            <path id="Line-Copy" d="M107.5,35.5 L114.5,49.5 L108.5,49.5 L108.5,67.5 L106.5,67.5 L106.5,49.5 L100.5,49.5 L107.5,35.5 Z" fill="#EE6B47" fill-rule="nonzero"></path>
            <text id="occupiedBy" font-family="PTMono-Regular, PT Mono" font-size="14" font-weight="normal" fill="#8A704D">
                <tspan x="5" y="56">occupiedBy</tspan>
            </text>
            <path id="Line-Copy-2" d="M102.5,113.5 L102.5,131.5 L108.5,131.5 L101.5,145.5 L94.5,131.5 L100.5,131.5 L100.5,113.5 L102.5,113.5 Z" fill="#EE6B47" fill-rule="nonzero"></path>
            <text id="participants" font-family="PTMono-Regular, PT Mono" font-size="14" font-weight="normal" fill="#8A704D">
                <tspan x="0" y="135">participants</tspan>
            </text>
            <ellipse id="Oval-32" stroke="#F5A623" cx="101" cy="52.5" rx="37" ry="33.5"></ellipse>
        </g>
    </g>
</svg>
